packages/icons/general/History.dark.svg

<svg width="24" height="25" viewBox="0 0 24 25" fill="none" xmlns="http://www.w3.org/2000/svg">
<path fill-rule="evenodd" clip-rule="evenodd" d="M3.74268 4.55383C3.1134 5.23152 2.76895 6.25711 2.76895 7.63447V17.6345C2.76895 19.0118 3.1134 20.0374 3.74268 20.7151C4.36199 21.3821 5.37143 21.8345 6.96895 21.8345H14.344C14.7859 21.8345 15.144 22.1926 15.144 22.6345C15.144 23.0763 14.7859 23.4345 14.344 23.4345H6.96895C5.06647 23.4345 3.5759 22.8869 2.57021 21.8038C1.57449 20.7315 1.16895 19.2571 1.16895 17.6345V7.63447C1.16895 6.01184 1.57449 4.53743 2.57021 3.46511C3.5759 2.38206 5.06647 1.83447 6.96895 1.83447H14.9689C16.8714 1.83447 18.362 2.38206 19.3677 3.46511C20.3634 4.53743 20.7689 6.01184 20.7689 7.63447V11.8389C20.7689 12.2808 20.4108 12.6389 19.9689 12.6389C19.5271 12.6389 19.1689 12.2808 19.1689 11.8389V7.63447C19.1689 6.25711 18.8245 5.23152 18.1952 4.55383C17.5759 3.88688 16.5665 3.43447 14.9689 3.43447H6.96895C5.37143 3.43447 4.36199 3.88688 3.74268 4.55383Z" fill="#F5F5F5"/>
<path fill-rule="evenodd" clip-rule="evenodd" d="M18.9504 15.0528C17.0495 15.0528 15.5084 16.5939 15.5084 18.4949C15.5084 20.3959 17.0495 21.9369 18.9504 21.9369C20.8514 21.9369 22.3925 20.3959 22.3925 18.4949C22.3925 16.5939 20.8514 15.0528 18.9504 15.0528ZM14.1084 18.4949C14.1084 15.8207 16.2763 13.6528 18.9504 13.6528C21.6246 13.6528 23.7925 15.8207 23.7925 18.4949C23.7925 21.1691 21.6246 23.3369 18.9504 23.3369C16.2763 23.3369 14.1084 21.1691 14.1084 18.4949Z" fill="#F5F5F5"/>
<path fill-rule="evenodd" clip-rule="evenodd" d="M18.949 15.5298C19.3356 15.5298 19.649 15.8432 19.649 16.2298V18.508C19.649 18.8946 19.3356 19.208 18.949 19.208C18.5624 19.208 18.249 18.8946 18.249 18.508V16.2298C18.249 15.8432 18.5624 15.5298 18.949 15.5298Z" fill="#F5F5F5"/>
<path fill-rule="evenodd" clip-rule="evenodd" d="M18.3434 18.1575C18.5367 17.8227 18.9648 17.708 19.2996 17.9013L20.9681 18.8646C21.3029 19.0579 21.4177 19.486 21.2244 19.8208C21.0311 20.1556 20.6029 20.2703 20.2681 20.077L18.5996 19.1137C18.2648 18.9204 18.1501 18.4923 18.3434 18.1575Z" fill="#F5F5F5"/>
<path fill-rule="evenodd" clip-rule="evenodd" d="M14.9504 2.63525C15.3922 2.63525 15.7504 2.99343 15.7504 3.43525V5.43525C15.7504 6.09343 16.2922 6.63525 16.9504 6.63525H18.9504C19.3922 6.63525 19.7504 6.99343 19.7504 7.43525C19.7504 7.87708 19.3922 8.23525 18.9504 8.23525H16.9504C15.4086 8.23525 14.1504 6.97708 14.1504 5.43525V3.43525C14.1504 2.99343 14.5086 2.63525 14.9504 2.63525Z" fill="#F5F5F5"/>
<path fill-rule="evenodd" clip-rule="evenodd" d="M6.16699 11.0231C6.16699 10.5813 6.52516 10.2231 6.96699 10.2231H12.967C13.4088 10.2231 13.767 10.5813 13.767 11.0231C13.767 11.465 13.4088 11.8231 12.967 11.8231H6.96699C6.52516 11.8231 6.16699 11.465 6.16699 11.0231Z" fill="#F5F5F5"/>
<path fill-rule="evenodd" clip-rule="evenodd" d="M6.16699 15.8728C6.16699 15.4309 6.52516 15.0728 6.96699 15.0728H11.781C12.2228 15.0728 12.581 15.4309 12.581 15.8728C12.581 16.3146 12.2228 16.6728 11.781 16.6728H6.96699C6.52516 16.6728 6.16699 16.3146 6.16699 15.8728Z" fill="#F5F5F5"/>
</svg>

<svg xmlns="http://www.w3.org/2000/svg" fill="none" viewBox="0 0 24 25">
    <path fill="#F5F5F5" fill-rule="evenodd" d="M3.743 4.554c-.63.678-.974 1.703-.974 3.08v10c0 1.378.344 2.403.974 3.081.619.667 1.628 1.12 3.226 1.12h7.375a.8.8 0 1 1 0 1.6H6.969c-1.903 0-3.393-.548-4.399-1.631-.996-1.072-1.401-2.547-1.401-4.17v-10c0-1.622.405-3.097 1.401-4.169 1.006-1.083 2.496-1.63 4.399-1.63h8c1.902 0 3.393.547 4.399 1.63.995 1.072 1.4 2.547 1.4 4.17v4.204a.8.8 0 1 1-1.6 0V7.634c0-1.377-.343-2.402-.973-3.08-.62-.667-1.628-1.12-3.226-1.12h-8c-1.598 0-2.607.453-3.226 1.12Z" clip-rule="evenodd"/>
    <path fill="#F5F5F5" fill-rule="evenodd" d="M18.95 15.053a3.442 3.442 0 1 0 0 6.884 3.442 3.442 0 0 0 0-6.884Zm-4.842 3.442a4.842 4.842 0 1 1 9.685 0 4.842 4.842 0 0 1-9.685 0Z" clip-rule="evenodd"/>
    <path fill="#F5F5F5" fill-rule="evenodd" d="M18.949 15.53a.7.7 0 0 1 .7.7v2.278a.7.7 0 1 1-1.4 0V16.23a.7.7 0 0 1 .7-.7Z" clip-rule="evenodd"/>
    <path fill="#F5F5F5" fill-rule="evenodd" d="M18.343 18.157a.7.7 0 0 1 .957-.256l1.668.964a.7.7 0 1 1-.7 1.212l-1.668-.963a.7.7 0 0 1-.257-.957ZM14.95 2.635a.8.8 0 0 1 .8.8v2c0 .658.542 1.2 1.2 1.2h2a.8.8 0 0 1 0 1.6h-2a2.806 2.806 0 0 1-2.8-2.8v-2a.8.8 0 0 1 .8-.8Zm-8.783 8.388a.8.8 0 0 1 .8-.8h6a.8.8 0 0 1 0 1.6h-6a.8.8 0 0 1-.8-.8Zm0 4.85a.8.8 0 0 1 .8-.8h4.814a.8.8 0 1 1 0 1.6H6.967a.8.8 0 0 1-.8-.8Z" clip-rule="evenodd"/>
</svg>
